X:65
T:Country Dance. JJo.065
S:J.Jones MS,1801,N.Shrops.
A:N Shropshire
Z:Neil Brookes 2006
M:6/8
L:1/8
Q:3/8=120
K:C
g|ede ceg|c’3g2g|gef def|[f3d3]e2g|!
edec2c’|babg2d|ec’b ag^f|g3g2:|!
|:g|gfg e2g|fef d2f|egc’ gec|[e3c3][d2G2]g|!
gfg e2g|fefd2f|egc’ efd|c3[c2C2]:|

